gulp/src/images/icons/icon-web_design.svg

﻿<svg version="1.1" xmlns="http://www.w3.org/2000/svg" xmlns:xlink="http://www.w3.org/1999/xlink" width="35" height="35"><defs/><g><path fill="rgb(149,225,211)" stroke="none" paint-order="stroke fill markers" fill-rule="evenodd" d=" M 31.49993896484375 33.999786496162415 C 31.49993896484375 33.999786496162415 2.4999237060546875 33.999786496162415 2.4999237060546875 33.999786496162415 C 1.671600341796875 33.999786496162415 1.00006103515625 33.3279687166214 1.00006103515625 32.49952435493469 C 1.00006103515625 32.49952435493469 1.00006103515625 3.499440550804138 1.00006103515625 3.499440550804138 C 1.00006103515625 2.671600341796875 1.671600341796875 1.9997825622558594 2.4999237060546875 1.9997825622558594 C 2.4999237060546875 1.9997825622558594 31.49993896484375 1.9997825622558594 31.49993896484375 1.9997825622558594 C 32.32837677001953 1.9997825622558594 33.000030517578125 2.671600341796875 33.000030517578125 3.499440550804138 C 33.000030517578125 3.499440550804138 33.000030517578125 32.49952435493469 33.000030517578125 32.49952435493469 C 33.000030517578125 33.3279687166214 32.32837677001953 33.999786496162415 31.49993896484375 33.999786496162415 Z M 29.999961853027344 4.99970269203186 C 29.999961853027344 4.99970269203186 4.0000152587890625 4.99970269203186 4.0000152587890625 4.99970269203186 C 4.0000152587890625 4.99970269203186 4.0000152587890625 30.999866366386414 4.0000152587890625 30.999866366386414 C 4.0000152587890625 30.999866366386414 29.999961853027344 30.999866366386414 29.999961853027344 30.999866366386414 C 29.999961853027344 30.999866366386414 29.999961853027344 4.99970269203186 29.999961853027344 4.99970269203186 Z M 6.215362548828125 18.238500356674194 C 6.215362548828125 18.238500356674194 6.2146759033203125 18.237292051315308 6.2146759033203125 18.237292051315308 C 6.2146759033203125 18.237292051315308 10.214614868164062 15.737459301948547 10.214614868164062 15.737459301948547 C 10.214614868164062 15.737459301948547 10.215415954589844 15.738667607307434 10.215415954589844 15.738667607307434 C 10.4437255859375 15.598051071166992 10.712318420410156 15.516943573951721 10.999908447265625 15.516943573951721 C 11.311302185058594 15.516943573951721 11.600379943847656 15.611795544624329 11.840133666992188 15.774463653564453 C 11.840133666992188 15.774463653564453 11.845970153808594 15.765552401542664 11.845970153808594 15.765552401542664 C 11.845970153808594 15.765552401542664 18.47667694091797 20.185835480690002 18.47667694091797 20.185835480690002 C 18.47667694091797 20.185835480690002 26.11492156982422 14.794528007507324 26.11492156982422 14.794528007507324 C 26.36302947998047 14.612829089164734 26.668930053710938 14.505440950393677 27.00000762939453 14.505440950393677 C 27.828330993652344 14.505440950393677 28.499984741210938 15.176654577255249 28.499984741210938 16.005098938941956 C 28.499984741210938 16.505186319351196 28.254966735839844 16.94803023338318 27.878456115722656 17.220503091812134 C 27.878456115722656 17.220503091812134 27.87891387939453 17.221107244491577 27.87891387939453 17.221107244491577 C 27.87891387939453 17.221107244491577 19.378929138183594 23.22140061855316 19.378929138183594 23.22140061855316 C 19.378929138183594 23.22140061855316 19.37847137451172 23.22079646587372 19.37847137451172 23.22079646587372 C 19.131507873535156 23.399625658988953 18.828125 23.50520133972168 18.500022888183594 23.50520133972168 C 18.179359436035156 23.50520133972168 17.88238525390625 23.4044588804245 17.638626098632812 23.232728481292725 C 17.638626098632812 23.232728481292725 10.982398986816406 18.79522705078125 10.982398986816406 18.79522705078125 C 10.982398986816406 18.79522705078125 7.846832275390625 20.754947304725647 7.846832275390625 20.754947304725647 C 7.6058197021484375 20.920183062553406 7.3142242431640625 21.017300605773926 6.999969482421875 21.017300605773926 C 6.171531677246094 21.017300605773926 5.499992370605469 20.34548282623291 5.499992370605469 19.517038464546204 C 5.499992370605469 18.976472854614258 5.786323547363281 18.502515077590942 6.215362548828125 18.238500356674194 Z"/></g></svg>

<svg version="1.1" xmlns="http://www.w3.org/2000/svg" width="35" height="35"><path fill="#95E1D3" stroke="none" paint-order="stroke fill markers" fill-rule="evenodd" d="M31.5 34h-29A1.5 1.5 0 0 1 1 32.5v-29A1.5 1.5 0 0 1 2.5 2h29A1.5 1.5 0 0 1 33 3.5v29a1.5 1.5 0 0 1-1.5 1.5zM30 5H4v26h26V5zM6.215 18.239v-.002l4-2.5v.002a1.49 1.49 0 0 1 .785-.222c.311 0 .6.095.84.257l.006-.008 6.63 4.42 7.639-5.391a1.5 1.5 0 0 1 1.764 2.426l-8.5 6a1.493 1.493 0 0 1-1.74.012l-6.657-4.438-3.135 1.96a1.5 1.5 0 0 1-1.631-2.516z"/></svg>
